_includes/icons/ios-gif.svg

<svg fill="#666" height="50" viewBox="0 0 50 50" width="50" xmlns="http://www.w3.org/2000/svg"><path d="m7 2v46h36v-32.589844l-13.816406-13.410156zm2 2h19v13h13v29h-32zm21 1.578125 9.707031 9.421875h-9.707031zm-8.675781 17.890625c-2.144531 0-4.246094 1.527344-4.292969 5.203125-.027344 1.738281.4375 3.238281 1.308594 4.078125.675781.675781 1.542969 1.003906 2.699219 1.003906.734375 0 1.664062-.175781 2.101562-.359375v-5.398437h-2.71875v1.605469h.902344v2.445312c-.074219.027344-.210938.046875-.390625.046875-.914063 0-1.859375-.875-1.859375-3.304687 0-2.640625 1.066406-3.554688 2.398437-3.554688.496094 0 .871094.078125 1.15625.226563l.34375-1.695313c-.3125-.152344-.882812-.296875-1.648437-.296875zm3.285156.089844v10.109375h1.964844v-10.109375zm3.71875 0v10.109375h1.96875v-4.171875h2.277344v-1.636719h-2.277344v-2.59375h2.425781v-1.707031z"/></svg>

<svg xmlns="http://www.w3.org/2000/svg" viewBox="0 0 50 50" width="50" height="50" fill="#666"><path d="M 7 2 L 7 48 L 43 48 L 43 15.410156 L 29.183594 2 Z M 9 4 L 28 4 L 28 17 L 41 17 L 41 46 L 9 46 Z M 30 5.578125 L 39.707031 15 L 30 15 Z M 21.324219 23.46875 C 19.179688 23.46875 17.078125 24.996094 17.03125 28.671875 C 17.003906 30.410156 17.46875 31.910156 18.339844 32.75 C 19.015625 33.425781 19.882813 33.753906 21.039063 33.753906 C 21.773438 33.753906 22.703125 33.578125 23.140625 33.394531 L 23.140625 27.996094 L 20.421875 27.996094 L 20.421875 29.601563 L 21.324219 29.601563 L 21.324219 32.046875 C 21.25 32.074219 21.113281 32.09375 20.933594 32.09375 C 20.019531 32.09375 19.074219 31.21875 19.074219 28.789063 C 19.074219 26.148438 20.140625 25.234375 21.472656 25.234375 C 21.96875 25.234375 22.34375 25.3125 22.628906 25.460938 L 22.972656 23.765625 C 22.660156 23.613281 22.089844 23.46875 21.324219 23.46875 Z M 24.609375 23.558594 L 24.609375 33.667969 L 26.574219 33.667969 L 26.574219 23.558594 Z M 28.328125 23.558594 L 28.328125 33.667969 L 30.296875 33.667969 L 30.296875 29.496094 L 32.574219 29.496094 L 32.574219 27.859375 L 30.296875 27.859375 L 30.296875 25.265625 L 32.722656 25.265625 L 32.722656 23.558594 Z"/></svg>
